icons/source/functional/send.svg

<?xml version="1.0" encoding="utf-8"?>
<!-- Generated by IcoMoon.io -->
<!DOCTYPE svg PUBLIC "-//W3C//DTD SVG 1.1//EN" "http://www.w3.org/Graphics/SVG/1.1/DTD/svg11.dtd">
<svg version="1.1" xmlns="http://www.w3.org/2000/svg" xmlns:xlink="http://www.w3.org/1999/xlink" width="32" height="32" viewBox="0 0 32 32">
<path d="M14 22.132l18-20.527-5.699 24.917-12.301-4.39zM10 20.754l-10-3.322 32-15.827-22 19.149zM14 24.256l5.805 2.071-5.805 5.805v-7.876z"></path>
</svg>

<svg xmlns="http://www.w3.org/2000/svg" width="32" height="32" viewBox="0 0 32 32"><path d="M14 22.132L32 1.605l-5.699 24.917L14 22.132zm-4-1.378L0 17.432 32 1.605 10 20.754zm4 3.502l5.805 2.071L14 32.132v-7.876z"/></svg>
